X:82
T:Saddle The Pony
S:The Session: https://thesession.org/tunes/307#setting55395
C:Traditional
R:jig
K:G
M:6/8
L:1/8
Q:1/4=113
D|:"G"GBA G2B|"G"def gdB|"G"GBA G2B|"D"AFD AFD|
"G"GBA G2B|"G"def g2g|"C"ege "G"dBA|1 "D"AGF "G"G2 D:|2 "D"AGF "G"G2 d||
|:"Em"e2e edB|"D"def "G"g2g|"Em"e2e edB|"D"dBA ABd|
"Em"e2e edB|"D"def "G"g2g|"C"ege "G"dBA|1 "D"AGF "G"G2 d:|2 "D"AGF "G"G4||

